src/shared/assets/dialog/dialog-message-voice-receive.svg

<svg width="20" height="20" viewBox="0 0 20 20" fill="none" xmlns="http://www.w3.org/2000/svg">
<circle cx="2" cy="2" r="2" transform="matrix(-1 0 0 1 6 8)" fill="black"/>
<path d="M8.35407 5.18187C8.82119 4.82759 9.485 4.85808 9.85201 5.31527C10.8825 6.59894 11.5001 8.22776 11.5001 10.002C11.5001 11.776 10.8826 13.4046 9.85244 14.6882C9.48525 15.1457 8.821 15.1761 8.3537 14.8215C7.73419 14.3513 7.73158 13.4184 8.1631 12.7714C8.69182 11.9787 9.00014 11.0264 9.00014 10.002C9.00014 8.97741 8.69191 8.02476 8.16315 7.23173C7.73175 6.58473 7.73448 5.65178 8.35407 5.18187Z" fill="black"/>
<path d="M12.2867 2.19666C12.7929 1.8126 13.5136 1.87182 13.9018 2.37489C15.5301 4.48501 16.5003 7.12872 16.5003 10.0001C16.5003 12.8713 15.5303 15.5148 13.9023 17.6249C13.5139 18.1282 12.7928 18.1874 12.2864 17.8029C11.6961 17.3549 11.6369 16.4937 12.0746 15.8958C13.2847 14.2429 14.0003 12.2056 14.0003 10.0001C14.0003 7.79447 13.2848 5.75668 12.0747 4.10356C11.637 3.50565 11.6964 2.64452 12.2867 2.19666Z" fill="black"/>
</svg>

<svg xmlns="http://www.w3.org/2000/svg" fill="none" viewBox="0 0 20 20"><circle cx="2" cy="2" r="2" fill="#000" transform="matrix(-1 0 0 1 6 8)"/><path fill="#000" d="M8.354 5.182c.467-.354 1.131-.324 1.498.133a7.46 7.46 0 0 1 1.648 4.687 7.46 7.46 0 0 1-1.648 4.686c-.367.458-1.031.488-1.498.133-.62-.47-.622-1.403-.19-2.05A4.97 4.97 0 0 0 9 10.002a5 5 0 0 0-.837-2.77c-.431-.647-.429-1.58.191-2.05m3.933-2.985c.506-.384 1.227-.325 1.615.178A12.44 12.44 0 0 1 16.5 10c0 2.871-.97 5.515-2.598 7.625-.388.503-1.11.562-1.616.178-.59-.448-.65-1.31-.211-1.907A9.95 9.95 0 0 0 14 10a9.95 9.95 0 0 0-1.925-5.896c-.438-.598-.379-1.46.212-1.907"/></svg>
